wp-content/themes/canvas/img/usergroupBlue.svg

<svg height="21" viewBox="0 0 34 21" width="34" xmlns="http://www.w3.org/2000/svg"><path d="m705.79834 4421.14746-.170899 2.29004h-2.529296l.170898-2.51221c.290527-3.26416 2.785645-5.12695 6.853027-5.12695.444336 0 .854492.01709 1.264649.06836-.529785.76904-.888672 1.64062-1.09375 2.63184-.05127 0-.102539-.01709-.170899-.01709-3.930664 0-4.272461 2.0166-4.32373 2.66601zm30.932617-.23926.187988 2.5293h-2.546386l-.170899-2.30713c-.051269-.63232-.393066-2.64892-4.32373-2.64892-.05127 0-.102539.01709-.170899.01709-.187988-.99122-.563965-1.8628-1.07666-2.63184.393067-.05127.820313-.06836 1.247559-.06836 4.067382 0 6.5625 1.86279 6.853027 5.10986zm-22.045898-1.16211-.307618 3.69141h-2.546386l.307617-3.87939c.341797-3.43506 3.195801-5.4004 7.861328-5.4004s7.519531 1.96534 7.861328 5.38331l.307617 3.89648h-2.546386l-.307618-3.7085c-.187988-1.91406-2.084961-2.88818-5.314941-2.88818s-5.126953.97412-5.314941 2.90527zm-5.075684-5.05859c-2.495117 0-4.375-2.13623-4.375-4.99023 0-2.49512 1.845703-4.30665 4.375-4.30665s4.375 1.81153 4.375 4.30665c0 2.854-1.879883 4.99023-4.375 4.99023zm0-6.66504c-.837402 0-1.726074.44434-1.726074 1.65772 0 1.36718.734863 2.37548 1.726074 2.37548 1.008301 0 1.726074-1.0083 1.726074-2.37548 0-1.21338-.888672-1.65772-1.726074-1.65772zm20.234375 6.66504c-2.495117 0-4.375-2.13623-4.375-4.99023 0-2.49512 1.845703-4.30665 4.375-4.30665 2.495117 0 4.375 1.8628 4.375 4.30665 0 2.854-1.879883 4.99023-4.375 4.99023zm-.01709-6.66504c-.837402 0-1.726074.44434-1.726074 1.65772 0 1.36718.734863 2.37548 1.726074 2.37548s1.726074-1.0083 1.726074-2.37548c0-1.28174-.888672-1.65772-1.726074-1.65772zm-10.100098 5.02442c-2.648925 0-4.648437-2.27295-4.648437-5.28077 0-2.56347 2.033691-4.56299 4.648437-4.56299 2.614747 0 4.648438 1.99952 4.648438 4.56299 0 3.00782-1.999512 5.28077-4.648438 5.28077zm0-7.21192c-1.145019 0-2.016601.82031-2.016601 1.91406 0 1.53809.854492 2.66602 2.016601 2.66602 1.16211 0 2.016602-1.12793 2.016602-2.66602 0-1.09375-.871582-1.91406-2.016602-1.91406z" fill="#99fff6" fill-rule="evenodd" transform="translate(-703 -4403)"/></svg>

<?xml version="1.0" encoding="UTF-8"?>
<svg width="34px" height="21px" viewBox="0 0 34 21" version="1.1" xmlns="http://www.w3.org/2000/svg" xmlns:xlink="http://www.w3.org/1999/xlink">
    <!-- Generator: Sketch 51.2 (57519) - http://www.bohemiancoding.com/sketch -->
    <title>usergroup</title>
    <desc>Created with Sketch.</desc>
    <defs></defs>
    <g id="Page-1" stroke="none" stroke-width="1" fill="none" fill-rule="evenodd">
        <g id="Concept-Two" transform="translate(-703.000000, -4403.000000)" fill="#99FFF6">
            <path d="M705.79834,4421.14746 L705.627441,4423.4375 L703.098145,4423.4375 L703.269043,4420.92529 C703.55957,4417.66113 706.054688,4415.79834 710.12207,4415.79834 C710.566406,4415.79834 710.976562,4415.81543 711.386719,4415.8667 C710.856934,4416.63574 710.498047,4417.50732 710.292969,4418.49854 C710.241699,4418.49854 710.19043,4418.48145 710.12207,4418.48145 C706.191406,4418.48145 705.849609,4420.49805 705.79834,4421.14746 Z M736.730957,4420.9082 L736.918945,4423.4375 L734.372559,4423.4375 L734.20166,4421.13037 C734.150391,4420.49805 733.808594,4418.48145 729.87793,4418.48145 C729.82666,4418.48145 729.775391,4418.49854 729.707031,4418.49854 C729.519043,4417.50732 729.143066,4416.63574 728.630371,4415.8667 C729.023438,4415.81543 729.450684,4415.79834 729.87793,4415.79834 C733.945312,4415.79834 736.44043,4417.66113 736.730957,4420.9082 Z M714.685059,4419.74609 L714.377441,4423.4375 L711.831055,4423.4375 L712.138672,4419.55811 C712.480469,4416.12305 715.334473,4414.15771 720,4414.15771 C724.665527,4414.15771 727.519531,4416.12305 727.861328,4419.54102 L728.168945,4423.4375 L725.622559,4423.4375 L725.314941,4419.729 C725.126953,4417.81494 723.22998,4416.84082 720,4416.84082 C716.77002,4416.84082 714.873047,4417.81494 714.685059,4419.74609 Z M709.609375,4414.6875 C707.114258,4414.6875 705.234375,4412.55127 705.234375,4409.69727 C705.234375,4407.20215 707.080078,4405.39062 709.609375,4405.39062 C712.138672,4405.39062 713.984375,4407.20215 713.984375,4409.69727 C713.984375,4412.55127 712.104492,4414.6875 709.609375,4414.6875 Z M709.609375,4408.02246 C708.771973,4408.02246 707.883301,4408.4668 707.883301,4409.68018 C707.883301,4411.04736 708.618164,4412.05566 709.609375,4412.05566 C710.617676,4412.05566 711.335449,4411.04736 711.335449,4409.68018 C711.335449,4408.4668 710.446777,4408.02246 709.609375,4408.02246 Z M729.84375,4414.6875 C727.348633,4414.6875 725.46875,4412.55127 725.46875,4409.69727 C725.46875,4407.20215 727.314453,4405.39062 729.84375,4405.39062 C732.338867,4405.39062 734.21875,4407.25342 734.21875,4409.69727 C734.21875,4412.55127 732.338867,4414.6875 729.84375,4414.6875 Z M729.82666,4408.02246 C728.989258,4408.02246 728.100586,4408.4668 728.100586,4409.68018 C728.100586,4411.04736 728.835449,4412.05566 729.82666,4412.05566 C730.817871,4412.05566 731.552734,4411.04736 731.552734,4409.68018 C731.552734,4408.39844 730.664062,4408.02246 729.82666,4408.02246 Z M719.726562,4413.04688 C717.077637,4413.04688 715.078125,4410.77393 715.078125,4407.76611 C715.078125,4405.20264 717.111816,4403.20312 719.726562,4403.20312 C722.341309,4403.20312 724.375,4405.20264 724.375,4407.76611 C724.375,4410.77393 722.375488,4413.04688 719.726562,4413.04688 Z M719.726562,4405.83496 C718.581543,4405.83496 717.709961,4406.65527 717.709961,4407.74902 C717.709961,4409.28711 718.564453,4410.41504 719.726562,4410.41504 C720.888672,4410.41504 721.743164,4409.28711 721.743164,4407.74902 C721.743164,4406.65527 720.871582,4405.83496 719.726562,4405.83496 Z" id="usergroup"></path>
        </g>
    </g>
</svg>
